contributed-vectors/minisweeper.svg

<svg xmlns="http://www.w3.org/2000/svg" width="256" height="256" style="isolation:isolate" viewBox="0 0 192 192"><defs><clipPath id="a"><path d="M0 0h192v192H0z"/></clipPath></defs><g clip-path="url(#a)" style="isolation:isolate"><path d="M29.5 19.5h133c5.519 0 10 4.481 10 10v133c0 5.519-4.481 10-10 10h-133c-5.519 0-10-4.481-10-10v-133c0-5.519 4.481-10 10-10Z" style="stroke:none;fill:#98dc9a;stroke-miterlimit:10"/><g style="isolation:isolate"><path d="M63.219 126.748h65.562a2.22 2.22 0 0 1 2.219 2.219v.814a2.22 2.22 0 0 1-2.219 2.219H63.219A2.22 2.22 0 0 1 61 129.781v-.814a2.22 2.22 0 0 1 2.219-2.219ZM80.244 120h31.512a2.253 2.253 0 0 1 2.251 2.251v.75a2.253 2.253 0 0 1-2.251 2.251H80.244a2.253 2.253 0 0 1-2.251-2.251v-.75A2.253 2.253 0 0 1 80.244 120ZM83.78 60.723l1.468-.314a2.254 2.254 0 0 1 2.672 1.731l11.301 52.824a2.252 2.252 0 0 1-1.73 2.672l-1.467.314a2.252 2.252 0 0 1-2.672-1.73L82.05 63.395a2.253 2.253 0 0 1 1.73-2.672Z" style="stroke:none;fill:#fff;stroke-miterlimit:10"/><path fill="#FFF" d="m95.053 84.69-2.518-11.773-2.519-11.773c-.323-1.509.603-2.337 2.067-1.849l11.201 3.737 11.202 3.736c1.464.489 1.73 1.733.594 2.777l-8.692 7.993-8.692 7.993c-1.136 1.044-2.32.667-2.643-.841Z"/></g></g></svg>

<?xml version="1.0" encoding="UTF-8" standalone="no"?><!-- Generator: Gravit.io --><svg xmlns="http://www.w3.org/2000/svg" xmlns:xlink="http://www.w3.org/1999/xlink" style="isolation:isolate" viewBox="0 0 192 192" width="192pt" height="192pt"><defs><clipPath id="_clipPath_ajthEGzss50D3f70jrHjMOK7cVgKqkfx"><rect width="192" height="192"/></clipPath></defs><g clip-path="url(#_clipPath_ajthEGzss50D3f70jrHjMOK7cVgKqkfx)"><g style="isolation:isolate"><path d="M 29.5 19.5 L 162.5 19.5 C 168.019 19.5 172.5 23.981 172.5 29.5 L 172.5 162.5 C 172.5 168.019 168.019 172.5 162.5 172.5 L 29.5 172.5 C 23.981 172.5 19.5 168.019 19.5 162.5 L 19.5 29.5 C 19.5 23.981 23.981 19.5 29.5 19.5 Z" style="stroke:none;fill:#98DC9A;stroke-miterlimit:10;"/><g style="isolation:isolate"><path d="M 63.219 126.748 L 128.781 126.748 C 130.006 126.748 131 127.742 131 128.967 L 131 129.781 C 131 131.006 130.006 132 128.781 132 L 63.219 132 C 61.994 132 61 131.006 61 129.781 L 61 128.967 C 61 127.742 61.994 126.748 63.219 126.748 Z" style="stroke:none;fill:#FFFFFF;stroke-miterlimit:10;"/><path d="M 80.244 120 L 111.756 120 C 112.998 120 114.007 121.009 114.007 122.251 L 114.007 123.001 C 114.007 124.243 112.998 125.252 111.756 125.252 L 80.244 125.252 C 79.002 125.252 77.993 124.243 77.993 123.001 L 77.993 122.251 C 77.993 121.009 79.002 120 80.244 120 Z" style="stroke:none;fill:#FFFFFF;stroke-miterlimit:10;"/><path d="M 83.78 60.723 L 85.248 60.409 C 86.462 60.15 87.66 60.925 87.92 62.14 L 99.221 114.964 C 99.481 116.179 98.706 117.376 97.491 117.636 L 96.024 117.95 C 94.809 118.21 93.612 117.434 93.352 116.22 L 82.05 63.395 C 81.79 62.181 82.566 60.983 83.78 60.723 Z" style="stroke:none;fill:#FFFFFF;stroke-miterlimit:10;"/><path d=" M 95.053 84.69 L 92.535 72.917 L 90.016 61.144 C 89.693 59.635 90.619 58.807 92.083 59.295 L 103.284 63.032 L 114.486 66.768 C 115.95 67.257 116.216 68.501 115.08 69.545 L 106.388 77.538 L 97.696 85.531 C 96.56 86.575 95.376 86.198 95.053 84.69 Z " fill="rgb(255,255,255)"/></g></g></g></svg>
